X: 3
T: The Ceilidh Band Reel
R: reel
M: 4/4
L: 1/8
K: Dmaj
a2 |: "D"D2 D2 FEDF | "D"A2 A2 BAFA  | "D"d2 d2 fede     | "A"f2 e2 e2 f2     |
   |"D"D2 D2 FEDF   | "D"A2 A2 BAFA  | "D"d2 f2 "A7"efga |1 "D"f2 d2 (d2 a2) :|2 "D"f2 d2 d3 e |]
   |: "D"f2 f2 defd | "A"e2 A2 A3 ^A | "G"B2 B2 GABG     | "D"A2 D2 D3 F      |
   |"Em"G2 G2 EFGE  | "D"F2 A2 d2 A2 | "G"BAGF "A"EFGA   |1 "D"F2 D2 D2 E2   :|2 "D"F2 D2 D4   |]
